images/under/handyh.svg

<svg width="85" height="85" viewBox="0 0 85 85" fill="none" xmlns="http://www.w3.org/2000/svg">
<path d="M67.1002 25.7V63.1L54.8002 75.9H42.3002L29.6002 62.7L15.3002 48.2C14.6002 47.3 14.2002 46.2 14.2002 45.1C14.2002 42.6 16.2002 40.6 18.7002 40.6C21.2002 40.6 20.8002 41 21.7002 41.8L28.9002 49.1V18.8C28.9002 17.5 29.3002 16.4 29.9002 15.6C30.6002 14.7 31.5002 14.3 32.7002 14.3C35.1002 14.3 37.0002 16.3 37.0002 18.9V40.6H38.8002V13.5C38.8002 11 40.8002 9 43.3002 9C45.8002 9 47.7002 11 47.8002 13.5V40.7H49.4002V18.5C49.4002 17.2 49.8002 16.1 50.4002 15.3C51.1002 14.4 52.0002 13.9 53.2002 13.9C55.6002 13.9 57.6002 15.9 57.7002 18.4V40.6H59.5002V25.3C59.5002 22.8 61.5002 20.8 63.9002 20.8C66.3002 20.8 66.2002 21.6 66.6002 22.3C67.2002 23.2 67.5002 24.3 67.5002 25.7H67.1002Z" fill="#F4492B"/>
<path d="M67.1002 63.2L54.8002 76H42.3002L29.6002 62.8L15.3002 48.3C14.6002 47.4 14.2002 46.3 14.2002 45.2C14.2002 42.7 16.2002 40.7 18.7002 40.7C21.2002 40.7 20.8002 41.1 21.7002 41.9L28.9002 49.2V18.9C28.9002 17.6 29.3002 16.5 29.9002 15.7C30.6002 14.8 31.5002 14.4 32.7002 14.4C35.1002 14.4 37.0002 16.4 37.0002 19V40.7H38.8002V13.5C38.8002 11 40.8002 9 43.3002 9C45.8002 9 47.7002 11 47.8002 13.5V40.7H49.4002V18.5C49.4002 17.2 49.8002 16.1 50.4002 15.3C51.1002 14.4 52.0002 13.9 53.2002 13.9C55.6002 13.9 57.6002 15.9 57.7002 18.4V40.6H59.5002V25.3C59.5002 22.8 61.5002 20.8 63.9002 20.8C66.3002 20.8 66.2002 21.6 66.6002 22.3C67.2002 23.2 67.5002 24.3 67.5002 25.7V63.1L67.1002 63.2Z" fill="#F4492B"/>
</svg>

<?xml version="1.0" encoding="UTF-8"?>
<svg id="_Слой_1" data-name="Слой 1" xmlns="http://www.w3.org/2000/svg" version="1.1" viewBox="0 0 85 85">
  <defs>
    <style>
      .cls-1 {
        fill: #f4492b;
        stroke-width: 0px;
      }
    </style>
  </defs>
  <path class="cls-1" d="M67.1,25.7v37.4l-12.3,12.8h-12.5l-12.7-13.2-14.3-14.5h0c-.7-.9-1.1-2-1.1-3.1,0-2.5,2-4.5,4.5-4.5s2.1.4,3,1.2l7.2,7.3v-30.3c0-1.3.4-2.4,1-3.2.7-.9,1.6-1.3,2.8-1.3,2.4,0,4.3,2,4.3,4.6v21.7h1.8V13.5c0-2.5,2-4.5,4.5-4.5s4.4,2,4.5,4.5v27.2h1.6v-22.2c0-1.3.4-2.4,1-3.2.7-.9,1.6-1.4,2.8-1.4,2.4,0,4.4,2,4.5,4.5v22.2h1.8v-15.3c0-2.5,2-4.5,4.4-4.5s2.3.8,2.7,1.5c.6.9.9,2,.9,3.4Z"/>
  <path class="cls-1" d="M67.1,63.2l-12.3,12.8h-12.5l-12.7-13.2-14.3-14.5h0c-.7-.9-1.1-2-1.1-3.1,0-2.5,2-4.5,4.5-4.5s2.1.4,3,1.2l7.2,7.3v-30.3c0-1.3.4-2.4,1-3.2.7-.9,1.6-1.3,2.8-1.3,2.4,0,4.3,2,4.3,4.6v21.7h1.8V13.5c0-2.5,2-4.5,4.5-4.5s4.4,2,4.5,4.5v27.2h1.6v-22.2c0-1.3.4-2.4,1-3.2.7-.9,1.6-1.4,2.8-1.4,2.4,0,4.4,2,4.5,4.5v22.2h1.8v-15.3c0-2.5,2-4.5,4.4-4.5s2.3.8,2.7,1.5c.6.9.9,2,.9,3.4v37.4Z"/>
</svg>
